X: 26831
T: Milltown Lasses, The
R: reel
M: 4/4
K: Edorian
FE~E2 FDA,D|FEEc d2AG|FE~E2 FDFA|Beef dBAG|
FE~E2 FDA,D|FEEc d2AG|FE~E2 FDFA|Beef dBAd||
Be~e2 efed|Beef gefd|Be~e2 efed|BABc dAFA|
Be~e2 efed|Beef gfef|gbaf gefd|(3Bcd ce dBAG||

